sanis/img/main/icons/profile_hov.svg

<svg width="27" height="27" viewBox="0 0 27 27" fill="none" xmlns="http://www.w3.org/2000/svg">
<circle cx="13.4998" cy="9.06522" r="6.06522" fill="#F9C859" stroke="black" stroke-width="2"/>
<path d="M5.80268 18.3579C5.87164 18.2824 6.09504 18.1234 6.5912 17.9459C7.05977 17.7782 7.6719 17.6286 8.39962 17.5049C9.85239 17.258 11.6666 17.1309 13.5 17.1309C15.3334 17.1308 17.1475 17.258 18.6003 17.5049C19.328 17.6286 19.9401 17.7782 20.4087 17.9458C20.9048 18.1233 21.1282 18.2823 21.1972 18.3578C21.6418 18.8448 22.1088 19.8426 22.5362 21.1415C22.949 22.3965 23.2793 23.7851 23.5153 24.9216C23.628 25.464 23.2145 26.0004 22.5906 26.0004H4.40927C3.7854 26.0004 3.37193 25.464 3.48457 24.9216C3.7206 23.7851 4.05088 22.3965 4.46375 21.1415C4.89108 19.8425 5.35814 18.8447 5.80268 18.3579Z" fill="#F9C859" stroke="black" stroke-width="2"/>
</svg>

<svg width="27" height="27" fill="none" xmlns="http://www.w3.org/2000/svg"><circle cx="13.5" cy="9.065" r="6.065" fill="#F9C859" stroke="#000" stroke-width="2"/><path d="M5.803 18.358c.069-.076.292-.235.788-.412.469-.168 1.08-.317 1.809-.441 1.452-.247 3.267-.374 5.1-.374 1.833 0 3.648.127 5.1.374.728.124 1.34.273 1.809.44.496.178.72.337.788.413.445.487.912 1.485 1.34 2.784.412 1.255.742 2.643.978 3.78.113.542-.3 1.078-.924 1.078H4.409c-.624 0-1.037-.536-.924-1.078.236-1.137.566-2.526.979-3.78.427-1.3.894-2.297 1.339-2.784z" fill="#F9C859" stroke="#000" stroke-width="2"/></svg>
